public/linked.svg

<svg width="24" height="24" viewBox="0 0 24 24" fill="none" xmlns="http://www.w3.org/2000/svg">
<path d="M21.3333 0C22.0406 0 22.7189 0.280951 23.219 0.781048C23.719 1.28115 24 1.95942 24 2.66667V21.3333C24 22.0406 23.719 22.7189 23.219 23.219C22.7189 23.719 22.0406 24 21.3333 24H2.66667C1.95942 24 1.28115 23.719 0.781048 23.219C0.280951 22.7189 0 22.0406 0 21.3333V2.66667C0 1.95942 0.280951 1.28115 0.781048 0.781048C1.28115 0.280951 1.95942 0 2.66667 0H21.3333ZM20.6667 20.6667V13.6C20.6667 12.4472 20.2087 11.3416 19.3936 10.5264C18.5784 9.71128 17.4728 9.25333 16.32 9.25333C15.1867 9.25333 13.8667 9.94667 13.2267 10.9867V9.50667H9.50667V20.6667H13.2267V14.0933C13.2267 13.0667 14.0533 12.2267 15.08 12.2267C15.5751 12.2267 16.0499 12.4233 16.3999 12.7734C16.75 13.1235 16.9467 13.5983 16.9467 14.0933V20.6667H20.6667ZM5.17333 7.41333C5.76742 7.41333 6.33717 7.17733 6.75725 6.75725C7.17733 6.33717 7.41333 5.76742 7.41333 5.17333C7.41333 3.93333 6.41333 2.92 5.17333 2.92C4.57571 2.92 4.00257 3.1574 3.57999 3.57999C3.1574 4.00257 2.92 4.57571 2.92 5.17333C2.92 6.41333 3.93333 7.41333 5.17333 7.41333ZM7.02667 20.6667V9.50667H3.33333V20.6667H7.02667Z" fill="#002A7C"/>
</svg>

<svg xmlns="http://www.w3.org/2000/svg" width="24" height="24" fill="none"><path fill="#002A7C" d="M21.333 0A2.667 2.667 0 0 1 24 2.667v18.666A2.667 2.667 0 0 1 21.333 24H2.667A2.667 2.667 0 0 1 0 21.333V2.667A2.667 2.667 0 0 1 2.667 0h18.666Zm-.666 20.667V13.6a4.347 4.347 0 0 0-4.347-4.347c-1.133 0-2.453.694-3.093 1.734v-1.48h-3.72v11.16h3.72v-6.574a1.86 1.86 0 0 1 1.853-1.866 1.866 1.866 0 0 1 1.867 1.866v6.574h3.72ZM5.173 7.413a2.24 2.24 0 0 0 2.24-2.24c0-1.24-1-2.253-2.24-2.253A2.253 2.253 0 0 0 2.92 5.173c0 1.24 1.013 2.24 2.253 2.24Zm1.854 13.254V9.507H3.333v11.16h3.694Z"/></svg>
